X:1
T:Substitute ヒトガワリ
T:Substitute ヒトガワリ
T:Kikuo + Hanatan
%%score { ( 1 4 6 ) | ( 2 3 5 ) }
L:1/8
Q:1/4=160
M:4/4
K:C
V:1 treble nm="Piano" snm="Pno."
V:4 treble 
V:6 treble 
V:2 bass 
V:3 bass 
V:5 bass 
V:1
!mf!!mf!!ped! [^FAd]2 ^f2 [FAa]2 ^c'2!ped-up! |!ped! [^GBb]2 z2 [GBe']2 ^c'2!ped-up! | %2
!ped! [E^G^g]2 a2 [EGg]2 ^f2!ped-up! |!ped! [EA^f]2 z2 [EA]4!ped-up! | %4
!ped! [^FAd]2 ^f2 [FAa]2 b2!ped-up! |!ped! ^g2 a2 [^Gc]2 ^c2!ped-up! | %6
!ped! [^C^F^g]2 a2 [CFg]2 ^f2!ped-up! |!ped! [^CE^f]2 z2 [CE]2 z2!ped-up! | %8
!ped! [^FAd]2 ^f2 [FAa]2 ^c'2!ped-up! |!ped! [^GBb]2 z2 [GBe']2 ^c'2!ped-up! | %10
!ped! [E^G^g]2 a2 [EGg]2 ^f2!ped-up! |!ped! [EA^f]2 z2 [EA]4!ped-up! | %12
!ped! [^FAd]2 ^f2 [FAa]2 b2!ped-up! |!ped! [^G^g]2 a2 [Gc]2 ^c2!ped-up! | %14
!ped! [^C^F^g]2 a2 [CFg]2 ^f2 | ^f4!f!!f! z4!ped-up! |!ped! FG z2 z4 | F^G z2 z4 | F^A z2 z4 | %19
 E^G z2 z4!ped-up! |!ped! FG z2 z4 | F^G z2 z4 | F^A z2 z4 | E^G z2 z4!ped-up! |!ped! [Gg]8 | %25
 [^G^g]8 | [Ee]4 [Ff]4 | [Cc]4 [^C^c]4!ped-up! |!ped! [C^Gc]8 | F^G z2 z4 | E^G z2 z4 | %31
 z8!ped-up! |!f!!ped! c8-!ped-up! | c6!ped! c^c!ped-up! | c!ped!^G^AG F^F=F^D!ped-up! | %35
 F!ped!^C=C^C =C4!ped-up! | C8-!ped!!ped-up! | C6!ped! c^c!ped-up! | c!ped!^G^AG F^F=F^D!ped-up! | %39
 F!ped!^C=C^C =C4!ped-up! | C8-!ped! | C6 c^c!ped-up! |!ped! c^G^AG F^F=F^D | %43
 F^C=C^C =C4-!ped-up! |!ped! C8 | z8!ped-up! |!ped! [CE^A]8 | z8!ped-up! |!ped! [F,^A,C^D]8 | %49
 [F,^A,]7 F,!ped-up! |!ped! ^A A2 A- A4 | ^A^dA- A4 F!ped-up! |!ped! F8- | F8!ped-up! | ^g8 | %55
 !>!G4 z2!ff! c2 |!ped! [Gcg]4 [^Gc^g]4!ped-up! |!ped! [FG^A^cg]4 [Ff]4!ped-up! | %58
!ped! [G^A^cg]2 [^G^g]2 [=G=g]2 [Ff]2!ped-up! |!ped! [E^Gce]2 [Ff]2 [Cc]2 [^C^c]2!ped-up! | %60
!ped! !>![Ff] [Gg]7!ped-up! |!ped! !>![Ff] [^G^g]7!ped-up! |!ped! !>![Ff] [^A^a]7!ped-up! | %63
!ped! !>![Ee] [^G^g]4 z [Cc]2!ped-up! |!ped! [FGcg]6 [^Gc^g]2!ped-up! | %65
!ped! [FG^A^cg]4 [Ff]4!ped-up! |!ped! [G^A^cg]2 [^G^g]2 [=G=g]2 [Ff]2!ped-up! | %67
!ped! [E^Gce]2 [Ff]2 [Cc]2 [^C^c]2!ped-up! |!ped! !>![Ff] [Gg]7!ped-up! | %69
!ped! !>![Ff] [^G^g]7!ped-up! |!ped! !>![Ff] [^A^a]7!ped-up! |!ped! !>![Ee] [^G^g]7!ped-up! | %72
!ped! !>![F,^CF]2 !>![=Cc]!>![CFc]- [CF^Gc]4- | [CFGc]4 [^A,F^A]2 [^G,^G]2!ped-up! | %74
!ped! [^A,CE^A][^G,C^G] [E,G,E]6- | [E,G,E]8 | z8!ped-up! | %77
!mf!!mf!!ped! [^FAd]2 ^f2 [FAa]2 ^c'2!ped-up! |!ped! [^GBb]2 z2 [GBe']2 ^c'2!ped-up! | %79
!ped! [E^G^g]2 a2 [EGg]2 ^f2!ped-up! |!ped! [EA^f]2 z2 [EA]4!ped-up! | %81
!ped! [^FAd]2 ^f2 [FAa]2 b2!ped-up! |!ped! ^g4 [^Gc]2 ^c2!ped-up! | %83
!ped! [^C^F^g]2 a2 [CFg]2 ^f2!ped-up! |!ped! [^CE^f]2 z2 [CE]2 z2!ped-up! | %85
!ped! [^FAd]2 ^f2 [FAa]2 ^c'2!ped-up! |!ped! [^GBb]2 z2 [GBe']2 ^c'2!ped-up! | %87
!ped! [E^G^g]2 a2 [EGg]2 ^f2!ped-up! |!ped! [EA^f]2 z2 [EA]4!ped-up! | %89
!ped! [^FAd]2 ^f2 [FAa]2 b2!ped-up! |!ped! [^G^g]2 a2 [Gc]2 ^c2!ped-up! | %91
!ped! [^C^F^g]2 a2 [CFg]2 ^f2 | ^f6 z2!ped-up! |!ff!!ff!!ped! !>![Ff]4 !>![^a^a']4 | %94
 !>![^A,^A]4 !>![aa']4 | !>![^g^g']4- !>![gg']!>!^c/!>!^f'/ !>!^c'!>!d' | %96
 !>!g'!>!^f'!>!^a!>!=f' !>!e'!>!a!>!^d'!>!=d'!ped-up! |!ped! !>![Cc]4 !>![^f^f']4 | %98
 !>![F,F]4 !>![ee']4 | !>!^d!>!e!>!b!>!^a !>!g!>!c'!>!f!>!^f | %100
 !>!c'!>!b (3!>!^a!>!d!>!^g !>!^d!>!g !>!^c2!ped-up! |!ped! !>![F,F]4 !>![^A^a]4 | %102
 !>![^A,^A]4 !>![aa']4 | !>![^C,^C]4 !>![Bb]4 | %104
 !>!g'!>!^f'!>!^a!>!=f' !>!e'!>!a!>!^d'!>!=d'!ped-up! |!ped! !>![F,F]4 !>![^c'^c'']4 | %106
 !>![Ff]4 !>![^d'^d'']4 | !>!^d''!>!e''!>!b'!>!^a' !>!g'!>!c''!>!f'!>!^f' | %108
 !>!c''!>!b' (3!>!^a'!>!d'!>!^g' !>!^d'!>!g' !>!^c'2!ped-up! |!ped! [G^A^d^d']8 | [^Ac^a]7 [Ff] | %111
 [^Ac^a]7 [Ff] | [^Ac^a]7 [Ff]!ped-up! |!ped! [G^A^d^d']8 | [^Ac^a]7 [Ff] | [^Ac^a]7 [Ff] | %116
 [^Ac^a]7 [Ff]!ped-up! |!ped! [G^A^d^d']8 | [^Ac^a]7 [Ff] | [^Ac^a]7 [Ff] | [^Ac^a]7 [Ff]!ped-up! | %121
!ped! [G^A^d^d']8 |!ff!!ff! [C,^D,G,^A,]4!>(!!>(! [C,D,G,A,]4 | [C,^D,G,^A,]4 [C,D,G,A,]4 | %124
 [C,^D,G,^A,]4!>)!!>)!!mf! [C,D,G,A,]4!ped-up! |!mp! [C-^g]8 | [CG]4 z2!fff! c2 | %127
!ped! [FGcg]4 [^Gc^g]4!ped-up! |!ped! [FG^A^cg]4 [Ff]4!ped-up! | %129
!ped! [G^A^cg]2 [^G^g]2 [=G=g]2 [Ff]2!ped-up! |!ped! [E^Gce]2 [Ff]2 [Cc]2 [^C^c]2!ped-up! | %131
!ped! !>![Ff] [Gg]7!ped-up! |!ped! !>![Ff] [^G^g]7!ped-up! |!ped! !>![Ff] [^A^a]7!ped-up! | %134
!ped! !>![Ee] [^G^g]4 z [Cc]2!ped-up! |!ped! !>![FGcg]6 [^Gc^g]2!ped-up! | %136
!ped! !>![FG^A^cg]6 [Ff]2!ped-up! |!ped! !>![G^A^cg]2 [^G^g]2 !>![=G=g]2 [Ff]2!ped-up! | %138
!ped! !>![E^Gce]2 [Ff]2 !>![Cc]2 [^C^c]2!ped-up! |!ped! !>![Ff] [Gg]7!ped-up! | %140
!ped! !>![Ff] [^G^g]7!ped-up! |!ped! !>![Ff] [^A^a]7!ped-up! | %142
!ped! !>![Ee] [^G^g]4 z [Cc]2!ped-up! |!ped! [Gcg]4 [^Gc^g]4!ped-up! | %144
!ped! [FG^A^cg]4 [Ff]4!ped-up! |!ped! [G^A^cg]2 [^G^g]2 [=G=g]2 [Ff]2!ped-up! | %146
!ped! [E^Gce]2 [Ff]2 [Cc]2 [^C^c]2!ped-up! |!ped! !>![Ff] [Gg]7!ped-up! | %148
!ped! !>![Ff] [^G^g]7!ped-up! |!ped! !>![Ff] [^A^a]7!ped-up! | %150
!ped! !>![Ee] [^G^g]4 z [Cc]2!ped-up! |!ped! [FGcg]6 [^Gc^g]2!ped-up! | %152
!ped! [FG^A^cg]6 [Ff]2!ped-up! |!ped! [G^A^cg]2 [^G^g]2 [=G=g]2 [Ff]2!ped-up! | %154
!ped! [E^Gce]2 [Ff]2 [Cc]2 [^C^c]2!ped-up! |!ped! !>![Ff] [Gg]7!ped-up! | %156
!ped! !>![Ff] [^G^g]7!ped-up! |!ped! !>![Ff] [^A^a]7!ped-up! |!ped! !>![Ee] [^G^g]7!ped-up! | %159
!ped! !>![^CF^cf]2 !>![cc']!>![^G-cc'] G4 | z8 | z8 | z4!fff! !>![F^A^a]2!>(! [^G^g]2!ped-up! | %163
!ped! [^A^a]!>![^G^g]!>)!!f! !>![Ee]6- | [Ee]8!ped-up! |!p!!ped! c2 f6- | f8- | f8 | z8 | %169
 z8!ped-up! ||!mp!!ped! [^FA]2 z2 [FA]2 z2!ped-up! |!ped! [^GB]2 z2 [GB]4!ped-up! | %172
!ped! [E^G]2 z2 [EG]4!ped-up! |!ped! [EA]2 z2 [EA]4!ped-up! |!ped! [^FA]2 z2 [FA]2 z2!ped-up! | %175
!ped! [F^G]2 z2 [FG]2 z2!ped-up! |!ped! [^C^F]2 z2 [CF]2 z2!ped-up! | %177
!ped! [^CE]2 z2 [CE]2 z2!ped-up! |!ped! [^FA]2 z2 [FA]2 z2!ped-up! |!ped! [^GB]2 z2 [GB]4!ped-up! | %180
!ped! [E^G]2 z2 [EG]4!ped-up! |!ped! [EA]2 z2 [EA]4!ped-up! |!ped! [^FA]2 z2 [FA]2 z2!ped-up! | %183
!ped! ^G2 z2 G4!ped-up! |!ped! [^C^F]2 z2 [CF]4- | [CF]4!f!!f! z4!ped-up! |!ped! FG z2 z4 | %187
 F_A z2 z4 | F_B z2 z4 | E_A z2 z4!ped-up! |!ped! FG z2 z4 | F_A z2 z4 | F_B z2 z4 | %193
 E_A z2 z4!ped-up! |!ped! FG z2 z4 | F_A z2 z4 | F_B z2 z4 | E_A z2 z4!ped-up! |!ped! F_A z2 z4 | %199
 F_A z2 z4 | E_A z2 z4 | z8!ped-up! |[K:bass]!ped! F, G,7!ped-up! |!ped! F, _A,7!ped-up! | %204
!ped! F, _B,7!ped-up! |!ped! E, _A,7!ped-up! |!ped! F, G,7!ped-up! |!ped! F, _A,7!ped-up! | %208
!ped! F, _B,7!ped-up! |!ped! E, _A,7!ped-up! |!ped! F, G,7 | z8!ped-up! |!ped! E, _A,7 | %213
 z8!ped-up! |[K:treble]!ped! [_DF_A]8 | z8!ped-up! |!ped! [CE_B]8 | z8!ped-up! |!ped! [F,_B,C_E]8 | %219
 [F,_B,]7 F,!ped-up! |!ped! [F,_B,]7 F, | [F,_B,]7 F,!ped-up! |!ped! C8- | C7 f!ped-up! | _a8 | %225
 !>!G4 z4 |!ff!!ff!!ped! [Gc]4 [_Ac]4!ped-up! |!ped! [F_B_d]8!ped-up! |!ped! [_B_d]8!ped-up! | %229
!ped! [_Ac]8!ped-up! |!ped! !>![Ff] [Gg]7!ped-up! |!ped! !>![Ff] [_A_a]7!ped-up! | %232
!ped! !>![Ff] [_B_b]7!ped-up! |!ped! !>![Ee] [_A_a]7!ped-up! |!ped! [Fc]6 c2!ped-up! | %235
!ped! [F_B_d]8!ped-up! |!ped! [_B_d]8!ped-up! |!ped! [_Ac]8!ped-up! |!ped! !>![Ff] [Gg]7!ped-up! | %239
!ped! !>![Ff] [_A_a]7!ped-up! |!ped! !>![Ff] [_B_b]7!ped-up! |!ped! !>![Ee] [_A_a]7!ped-up! | %242
!ped! _D4 _A4- | A4 F4!ped-up! |!ped! !>![CE]8 | z8 | z8!ped-up! | %247
!mf!!mf!!ped! [^FA]2 z2 [FA]2 z2!ped-up! |!ped! [^GB]2 z2 [GB]4!ped-up! | %249
!ped! [E^G]2 z2 [EG]4!ped-up! |!ped! [EA]2 z2 [EA]4!ped-up! |!ped! [^FA]2 z2 [FA]2 z2!ped-up! | %252
!ped! z4 ^G4!ped-up! |!ped! [^C^F]2 z2 [CF]2 z2!ped-up! |!ped! [^CE]2 z2 [CE]2 z2!ped-up! | %255
!ped! [^FA]2 z2 [FA]2 z2!ped-up! |!ped! [^GB]2 z2 [GB]4!ped-up! |!ped! [E^G]2 z2 [EG]4!ped-up! | %258
!ped! [EA]2 z2 [EA]4!ped-up! |!ped! [^FA]2 z2 [FA]2 z2!ped-up! |!ped! ^G2 z2 G4!ped-up! | %261
!ped! [^C^F]2 z2 [CF]4- | [CF]4 z4!ped-up! |!ff!!ff!!ped! !>![Ff]4 !>![_b_b']4 | %264
 !>![_B,_B]4 !>![aa']4 | !>![_a_a']4- !>![aa']!>!_d/!>!_g'/ !>!_d'!>!=d' | %266
 !>!g'!>!_g'!>!_b!>!f' !>!e'!>!b!>!_e'!>!d'!ped-up! |!ped! !>![Cc]4 !>![_g_g']4 | %268
 !>![F,F]4 !>![ee']4 | !>!_e!>!=e!>!b!>!_b !>!g!>!c'!>!f!>!_g | %270
 !>!c'!>!b (3!>!_b!>!d!>!_a !>!_e!>!a !>!_d2!ped-up! |!ped! !>![F,F]4 !>![_B_b]4 | %272
 !>![_B,_B]4 !>![aa']4 | !>![_D,_D]4 !>![Bb]4 | %274
 !>!g'!>!_g'!>!_b!>!f' !>!e'!>!b!>!_e'!>!d'!ped-up! |!ped! !>![F,F]4 !>![_d'_d'']4 | %276
 !>![Ff]4 !>![_e'_e'']4 | !>!_e''!>!=e''!>!b'!>!^a' !>!g'!>!c''!>!f'!>!^f' | %278
 !>!c''!>!b' (3!>!_b'!>!d'!>!_a' !>!_e'!>!a' !>!_d'2!ped-up! |!ped! [G_B_e_e']8 | [_Bc_b]7 [Ff] | %281
 [_Bc_b]7 [Ff] | [_Bc_b]7 [Ff]!ped-up! |!ped! [G_B_e_e']8 | [_Bc_b]7 [Ff] | [_Bc_b]7 [Ff] | %286
 [_Bc_b]7 [Ff]!ped-up! |!ped! [G_B_e_e']8 | [_Bc_b]7 [Ff] | [_Bc_b]7 [Ff] | [_Bc_b]7 [Ff]!ped-up! | %291
!ped! [G_B_e_e']8 |!ff!!ff! [C,_E,G,_B,]4!>(!!>(! [C,E,G,B,]4 | [C,_E,G,_B,]4 [C,E,G,B,]4 | %294
 [C,_E,G,_B,]4!>)!!>)!!p!!p! [C,E,G,B,]4!ped-up! |!f!!f!!ped! _a8 | G2 z2 z4!ped-up! | %297
!ped! [Gc]4 [_Ac]4!ped-up! |!ped! [F_B_d]8!ped-up! |!ped! [_B_d]8!ped-up! |!ped! [_Ac]8!ped-up! | %301
!ped! !>![Ff] [Gg]7!ped-up! |!ped! !>![Ff] [_A_a]7!ped-up! |!ped! !>![Ff] [_B_b]7!ped-up! | %304
!ped! !>![Ee] [_A_a]7!ped-up! |!ped! [Fc]6 c2!ped-up! |!ped! [F_B_d]8!ped-up! | %307
!ped! [_B_d]8!ped-up! |!ped! [_Ac]8!ped-up! |!ped! !>![Ff] [Gg]7!ped-up! | %310
!ped! !>![Ff] [_A_a]7!ped-up! |!ped! !>![Ff] [_B_b]7!ped-up! |!ped! !>![Ee] [_A_a]7!ped-up! | %313
!ped! [Gc]4 [_Ac]4!ped-up! |!ped! [F_B_d]8!ped-up! |!ped! [_B_d]8!ped-up! |!ped! [_Ac]8!ped-up! | %317
!ped! !>![Ff] [Gg]7!ped-up! |!ped! !>![Ff] [_A_a]7!ped-up! |!ped! !>![Ff] [_B_b]7!ped-up! | %320
!ped! !>![Ee] [_A_a]7!ped-up! |!ped! [Fc]6 c2!ped-up! |!ped! [F_B_d]8!ped-up! | %323
!ped! [_B_d]8!ped-up! |!ped! [_Ac]8!ped-up! |!ped! !>![Ff] [Gg]7!ped-up! | %326
!ped! !>![Ff] [_A_a]7!ped-up! |!ped! !>![Ff] [_B_b]7!ped-up! |!ped! !>![Ee] [_A_a]7!ped-up! | %329
!ped! !>!_D3 !>!_A- A4-!ped-up! | A8- | A8- | A4 !>!F4 |!ped! !>![CE]8!ped-up! | z8 | z8 | %336
!ped! z8!ped-up! | z8 | z8 | z8 |] %340
V:2
 B,8 | B,8 | A,8 | A,8 | B,8 | [^CF^G]2 C2 F2 C2 | ^F,8 | E,8 | B,8 | B,8 | A,8 | A,8 | B,8 | %13
 ^C2 C4 C2 | ^F,8- | F,4 .[^F,,,^F,,]!>![F,,,F,,] z2 | %16
 !>![F,,,F,,][F,,F,]F,,F,, !>![F,,F,]F,F,,[F,,,F,,] | %17
 !>![^A,,,,^A,,,][A,,,^A,,]A,,,A,,, !>![A,,,A,,]A,,A,,,[A,,,,A,,,] | %18
 !>![^C,,,^C,,][C,,^C,]C,,C,, !>![C,,C,]C,C,,[C,,,C,,] | %19
 !>![C,,,C,,][C,,C,]C,,C,, !>![C,,C,]C,C,,[C,,,C,,] | %20
 !>![F,,,F,,][F,,F,]F,,F,, !>![F,,F,]F,F,,[F,,,F,,] | %21
 !>![^A,,,,^A,,,][A,,,^A,,]A,,,A,,, !>![A,,,A,,]A,,A,,,[A,,,,A,,,] | %22
 !>![^C,,,^C,,][C,,^C,]C,,C,, !>![C,,C,]C,C,,[C,,,C,,] | %23
 !>![C,,,C,,][C,,C,]C,,C,, !>![C,,C,]C,C,,[C,,,C,,] | %24
 !>![F,,,F,,][F,,F,]F,,F,, !>![F,,F,]F,F,,[F,,,F,,] | %25
 !>![^A,,,,^A,,,][A,,,^A,,]A,,,A,,, !>![A,,,A,,]A,,A,,,[A,,,,A,,,] | %26
 !>![^C,,,^C,,][C,,^C,]C,,C,, !>![C,,C,]C,C,,[C,,,C,,] | %27
 !>![C,,,C,,][C,,C,]C,,C,, !>![C,,C,]C,C,,[C,,,C,,] | %28
 !>![^C,,,^C,,][C,,^C,]C,,C,, !>![C,,C,]C,C,,[C,,,C,,] | %29
 !>![^C,,,^C,,][C,,^C,]C,,C,, !>![C,,C,]C,C,,[C,,,C,,] | %30
 !>![C,,,C,,][C,,C,]C,,C,, [C,,C,]C,C,,[C,,,C,,] | [C,,,C,,][C,,C,]C,C,, [C,,C,]C,C,,C,, | %32
 !>![F,,,F,,][F,,F,]F,,F,, !>![F,,F,]F,F,,[F,,,F,,] | %33
 !>![^A,,,,^A,,,][A,,,^A,,]A,,,A,,, !>![A,,,A,,]A,,A,,,[A,,,,A,,,] | %34
 !>![^C,,,^C,,][C,,^C,]C,,C,, !>![C,,C,]C,C,,[C,,,C,,] | %35
 !>![C,,,C,,][C,,C,]C,,C,, !>![C,,C,]C,C,,[C,,,C,,] | %36
 !>![F,,,F,,][F,,F,]F,,F,, !>![F,,F,]F,F,,[F,,,F,,] | %37
 !>![^A,,,,^A,,,][A,,,^A,,]A,,,A,,, !>![A,,,A,,]A,,A,,,[A,,,,A,,,] | %38
 !>![^C,,,^C,,][C,,^C,]C,,C,, !>![C,,C,]C,C,,[C,,,C,,] | %39
 !>![C,,,C,,][C,,C,]C,,C,, !>![C,,C,]C,C,,[C,,,C,,] | %40
 [^C,,,^C,,][C,,^C,]C,,C,, [C,,C,]C,C,,[C,,,C,,] | %41
 [^C,,,^C,,][C,,^C,]C,,C,, [C,,C,]C,C,,[C,,,C,,] | %42
 !>![C,,,C,,][C,,C,]C,,C,, !>![C,,C,]C,C,,[C,,,C,,] | %43
 !>![C,,,C,,][C,,C,]C,,C,, !>![C,,C,]C,C,,[C,,,C,,] | %44
 [^C,,,^C,,][C,,^C,]C,,C,, [C,,C,]C,C,,[C,,,C,,] | %45
 [^C,,,^C,,][C,,^C,]C,,C,, [C,,C,]C,C,,[C,,,C,,] | [C,,,C,,][C,,C,]C,,C,, [C,,C,]C,C,,[C,,,C,,] | %47
 .[C,,,C,,].[C,,C,].[C,,C,].[C,,,C,,] .[C,,C,].[C,,,C,,].[C,,,C,,].[C,,,,C,,,] | %48
 C,,,,C,,,,C,,,,C,,,, C,,,,C,,,,C,,,,C,,,, | C,,,,C,,,,C,,,,C,,,, C,,,,C,,,,C,,,,C,,,, | %50
 C,,,,C,,,,C,,,,C,,,, C,,,,C,,,,C,,,,C,,,, | C,,,,C,,,,C,,,,C,,,, C,,,,C,,,,C,,,,C,,,, | %52
 C,,,,C,,,,C,,,,C,,,, C,,,,C,,,,C,,,,C,,,, | C,,,,C,,,,C,,,,C,,,, C,,,,C,,,,C,,,,C,,,, | z8 | z8 | %56
 !>![F,,,F,,]C,F,^G, [F,G,C]G,F,[C,,C,] | !>![^A,,,,^A,,,]^A,,^C,F, [A,,C,F,^G,]F,C,[A,,,A,,] | %58
 !>![^C,,,^C,,]^G,,^C,F, [F,^G,C]F,C,[^G,,,G,,] | !>![C,,,C,,]^A,,E,^G, [E,G,C]E,A,,[C,,,C,,] | %60
 !>![F,,,F,,]C,F,^G, [F,G,C]G,F,[C,,C,] | !>![^A,,,,^A,,,]^A,,^C,F, [A,,C,F,^G,]F,C,[A,,,A,,] | %62
 !>![^C,,,^C,,]^G,,^C,F, [F,^G,C]F,C,[^G,,,G,,] | !>![C,,,C,,]^A,,E,^G, [E,G,C]E,A,,[C,,,C,,] | %64
 !>![F,,,F,,]C,F,^G, [F,G,C]G,F,[C,,C,] | !>![^A,,,,^A,,,]^A,,^C,F, [A,,C,F,^G,]F,C,[A,,,A,,] | %66
 !>![^C,,,^C,,]^G,,^C,F, [C,F,^G,]F,C,[^G,,,G,,] | !>![C,,,C,,]^A,,E,^G, [E,G,C]E,A,,[C,,,C,,] | %68
 !>![F,,,F,,]C,F,^G, [F,G,C]G,F,[C,,C,] | !>![^A,,,,^A,,,]^A,,^C,F, [A,,C,F,^G,]F,C,[A,,,A,,] | %70
 !>![^C,,,^C,,]^G,,^C,F, [F,^G,C]F,C,[^G,,,G,,] | !>![C,,,C,,]^A,,E,^G, [E,G,C]E,A,,[C,,,C,,] | %72
 !>![^C,,,^C,,]^G,,^C,F, [F,^G,C]F,C,[^G,,,G,,] | !>![^C,,,^C,,]^G,,^C,F, [F,^G,C]F,C,[^G,,,G,,] | %74
 !>![C,,,C,,]E,,^A,,[E,^G,C] z4 | z8 | z8 | B,8 | B,8 | A,8 | A,8 | B,8 | [^CF^G]2 C2 F2 C2 | %83
 ^F,8 | E,8 | B,8 | B,8 | A,8 | A,8 | B,8 | ^C2 C4 C2 | ^F,8- | F,4 z4 | %93
 !>![C,,C,]C,C,C, !>![C,,C,]!>!C,,!>!C,,!>![C,,,C,,] | %94
 !>![C,,,C,,]C,,C,,C,, !>![C,,C,]C,!>![C,C]!>![C,,C,] | %95
 !>![C,,C,]C,C,C, !>![C,,C,]!>!C,,!>!C,,!>![C,,,C,,] | %96
 !>![C,,,C,,]C,,C,,C,, !>![C,,C,]C,!>![C,C]!>![C,,C,] | %97
 !>![C,,C,]C,C,C, !>![C,,C,]!>!C,,!>!C,,!>![C,,,C,,] | %98
 !>![C,,,C,,]C,,C,,C,, !>![C,,C,]C,!>![C,C]!>![C,,C,] | %99
 !>![C,,C,]C,C,C, !>![C,,C,]!>!C,,!>!C,,!>![C,,,C,,] | %100
 !>![C,,,C,,]C,,C,,C,, !>![C,,C,]C,!>![C,C]!>![C,,C,] | %101
 !>![C,,C,]C,C,C, !>![C,,C,]!>!C,,!>!C,,!>![C,,,C,,] | %102
 !>![C,,,C,,]C,,C,,C,, !>![C,,C,]C,!>![C,C]!>![C,,C,] | %103
 !>![C,,C,]C,C,C, !>![C,,C,]!>!C,,!>!C,,!>![C,,,C,,] | %104
 !>![C,,,C,,]C,,C,,C,, !>![C,,C,]C,!>![C,C]!>![C,,C,] | %105
 !>![C,,C,]C,C,C, !>![C,,C,]!>!C,,!>!C,,!>![C,,,C,,] | %106
 !>![C,,,C,,]C,,C,,C,, !>![C,,C,]C,!>![C,C]!>![C,,C,] | %107
 !>![C,,C,]C,C,C, !>![C,,C,]!>!C,,!>!C,,!>![C,,,C,,] | %108
 !>![C,,,C,,]C,,C,,C,, !>![C,,C,]C,!>![C,C]!>![C,,C,] | %109
 !>![C,,,C,,]C,,,C,,,C,,, !>![C,,,C,,]C,,!>![C,,C,]!>![C,,,C,,] | %110
 !>![C,,,C,,]C,,,C,,,C,,, !>![C,,,C,,]C,,!>![C,,C,]!>![C,,,C,,] | %111
 !>![C,,,C,,]C,,,C,,,C,,, !>![C,,,C,,]C,,!>![C,,C,]!>![C,,,C,,] | %112
 !>![C,,,C,,]C,,,C,,,C,,, !>![C,,,C,,]C,,!>![C,,C,]!>![C,,,C,,] | %113
 !>![C,,,C,,]C,,,C,,,C,,, !>![C,,,C,,]C,,!>![C,,C,]!>![C,,,C,,] | %114
 !>![C,,,C,,]C,,,C,,,C,,, !>![C,,,C,,]C,,!>![C,,C,]!>![C,,,C,,] | %115
 !>![C,,,C,,]C,,,C,,,C,,, !>![C,,,C,,]C,,!>![C,,C,]!>![C,,,C,,] | %116
 !>![C,,,C,,]C,,,C,,,C,,, !>![C,,,C,,]C,,!>![C,,C,]!>![C,,,C,,] | %117
 !>![C,,,C,,]C,,,C,,,C,,, !>![C,,,C,,]C,,!>![C,,C,]!>![C,,,C,,] | %118
 !>![C,,,C,,]C,,,C,,,C,,, !>![C,,,C,,]C,,!>![C,,C,]!>![C,,,C,,] | %119
 !>![C,,,C,,]C,,,C,,,C,,, !>![C,,,C,,]C,,!>![C,,C,]!>![C,,,C,,] | %120
 !>![C,,,C,,]C,,,C,,,C,,, !>![C,,,C,,]C,,!>![C,,C,]!>![C,,,C,,] | %121
 !>![C,,,C,,]C,,,C,,,C,,, !>![C,,,C,,]C,,!>![C,,C,]!>![C,,,C,,] | %122
 !>![C,,,C,,]C,,,C,,,C,,, !>![C,,,C,,]C,,!>![C,,C,]!>![C,,,C,,] | %123
 !>![C,,,C,,]C,,,C,,,C,,, !>![C,,,C,,]C,,!>![C,,C,]!>![C,,,C,,] | [C,,,C,,]8 | z8 | z8 | %127
 !>![F,,,F,,]C,F,^G, [F,G,C]G,F,[C,,C,] | !>![^A,,,,^A,,,]^A,,^C,F, [A,,C,F,^G,]F,C,[A,,,A,,] | %129
 !>![^C,,,^C,,]^G,,^C,F, [F,^G,C]F,C,[^G,,,G,,] | !>![C,,,C,,]^A,,E,^G, [E,G,C]E,A,,[C,,,C,,] | %131
 !>![F,,,F,,]C,F,^G, [F,G,C]G,F,[C,,C,] | !>![^A,,,,^A,,,]^A,,^C,F, [A,,C,F,^G,]F,C,[A,,,A,,] | %133
 !>![^C,,,^C,,]^G,,^C,F, [F,^G,C]F,C,[^G,,,G,,] | !>![C,,,C,,]^A,,E,^G, [E,G,C]E,A,,[C,,,C,,] | %135
 !>![F,,,F,,]C,F,^G, [F,G,C]G,F,[C,,C,] | !>![^A,,,,^A,,,]^A,,^C,F, [A,,C,F,^G,]F,C,[A,,,A,,] | %137
 !>![^C,,,^C,,]^G,,^C,F, [C,F,^G,]F,C,[^G,,,G,,] | !>![C,,,C,,]^A,,E,^G, [E,G,C]E,A,,[C,,,C,,] | %139
 !>![F,,,F,,]C,F,^G, [F,G,C]G,F,[C,,C,] | !>![^A,,,,^A,,,]^A,,^C,F, [A,,C,F,^G,]F,C,[A,,,A,,] | %141
 !>![^C,,,^C,,]^G,,^C,F, [F,^G,C]F,C,[^G,,,G,,] | !>![C,,,C,,]^A,,E,^G, [E,G,C]E,A,,[C,,,C,,] | %143
 !>![F,,,F,,]C,F,^G, [F,G,C]G,F,[C,,C,] | !>![^A,,,,^A,,,]^A,,^C,F, [A,,C,F,^G,]F,C,[A,,,A,,] | %145
 !>![^C,,,^C,,]^G,,^C,F, [F,^G,C]F,C,[^G,,,G,,] | !>![C,,,C,,]^A,,E,^G, [E,G,C]E,A,,[C,,,C,,] | %147
 !>![F,,,F,,]C,F,^G, [F,G,C]G,F,[C,,C,] | !>![^A,,,,^A,,,]^A,,^C,F, [A,,C,F,^G,]F,C,[A,,,A,,] | %149
 !>![^C,,,^C,,]^G,,^C,F, [F,^G,C]F,C,[^G,,,G,,] | !>![C,,,C,,]^A,,E,^G, [E,G,C]E,A,,[C,,,C,,] | %151
 !>![F,,,F,,]C,F,^G, [F,G,C]G,F,[C,,C,] | !>![^A,,,,^A,,,]^A,,^C,F, [A,,C,F,^G,]F,C,[A,,,A,,] | %153
 !>![^C,,,^C,,]^G,,^C,F, [C,F,^G,]F,C,[^G,,,G,,] | !>![C,,,C,,]^A,,E,^G, [E,G,C]E,A,,[C,,,C,,] | %155
 !>![F,,,F,,]C,F,^G, [F,G,C]G,F,[C,,C,] | !>![^A,,,,^A,,,]^A,,^C,F, [A,,C,F,^G,]F,C,[^A,,,A,,] | %157
 !>![^C,,,^C,,]^G,,^C,F, [F,^G,C]F,C,[^G,,,G,,] | !>![C,,,C,,]^A,,E,^G, [E,G,C]E,A,,[C,,,C,,] | %159
 !>![^C,,,^C,,]^G,,^C,F, [C,F,^G,C]F,C,[^G,,,G,,] | %160
 !>![^C,,,^C,,]^G,,^C,F, [C,F,^G,C]F,C,[^G,,,G,,] | %161
 !>![^C,,,^C,,]^G,,^C,F, [F,^G,C]F,C,[^G,,,G,,] | [^C,,,^C,,]^G,,^C,F, [F,^G,]F,C,G,, | %163
!>(!!>(! [C,,,C,,]E,,^A,,!>)!!>)!!mf!!mf![E,^G,C]- [E,G,C]4- | [E,G,C]8 | z8 | ^C, C7- | C8 | z8 | %169
 z8 || B,8 | B,8 | A,8 | A,8 | B,8 | ^G,8 | ^F,8 | E,8 | B,8 | B,8 | A,8 | A,8 | B,8 | ^C2 C4 C2 | %184
 ^F,8- | F,4 .[_G,,,_G,,]!>![G,,,G,,] z2 | !>![F,,,F,,][F,,F,]F,,F,, !>![F,,F,]F,F,,[F,,,F,,] | %187
 !>![_B,,,,_B,,,][B,,,_B,,]B,,,B,,, !>![B,,,B,,]B,,B,,,[B,,,,B,,,] | %188
 !>![_D,,,_D,,][D,,_D,]D,,D,, !>![D,,D,]D,D,,[D,,,D,,] | %189
 !>![C,,,C,,][C,,C,]C,,C,, !>![C,,C,]C,C,,[C,,,C,,] | %190
 !>![F,,,F,,][F,,F,]F,,F,, !>![F,,F,]F,F,,[F,,,F,,] | %191
 !>![_B,,,,_B,,,][B,,,_B,,]B,,,B,,, !>![B,,,B,,]B,,B,,,[B,,,,B,,,] | %192
 !>![_D,,,_D,,][D,,_D,]D,,D,, !>![D,,D,]D,D,,[D,,,D,,] | %193
 !>![C,,,C,,][C,,C,]C,,C,, !>![C,,C,]C,C,,[C,,,C,,] | %194
 !>![F,,,F,,][F,,F,]F,,F,, !>![F,,F,]F,F,,[F,,,F,,] | %195
 !>![_B,,,,_B,,,][B,,,_B,,]B,,,B,,, !>![B,,,B,,]B,,B,,,[B,,,,B,,,] | %196
 !>![_D,,,_D,,][D,,_D,]D,,D,, !>![D,,D,]D,D,,[D,,,D,,] | %197
 !>![C,,,C,,][C,,C,]C,,C,, !>![C,,C,]C,C,,[C,,,C,,] | %198
 !>![_D,,,_D,,][D,,_D,]D,,D,, !>![D,,D,]D,D,,[D,,,D,,] | %199
 !>![_D,,,_D,,][D,,_D,]D,,D,, !>![D,,D,]D,D,,[D,,,D,,] | %200
 !>![C,,,C,,][C,,C,]C,,C,, [C,,C,]C,C,,[C,,,C,,] | [C,,,C,,][C,,C,]C,C,, [C,,C,]C,C,,C,, | %202
 !>![F,,,F,,][F,,F,]F,,F,, !>![F,,F,]F,F,,[F,,,F,,] | %203
 !>![_B,,,,_B,,,][B,,,_B,,]B,,,B,,, !>![B,,,B,,]B,,B,,,[B,,,,B,,,] | %204
 !>![_D,,,_D,,][D,,_D,]D,,D,, !>![D,,D,]D,D,,[D,,,D,,] | %205
 !>![C,,,C,,][C,,C,]C,,C,, !>![C,,C,]C,C,,[C,,,C,,] | %206
 !>![F,,,F,,][F,,F,]F,,F,, !>![F,,F,]F,F,,[F,,,F,,] | %207
 !>![_B,,,,_B,,,][B,,,_B,,]B,,,B,,, !>![B,,,B,,]B,,B,,,[B,,,,B,,,] | %208
 !>![_D,,,_D,,][D,,_D,]D,,D,, !>![D,,D,]D,D,,[D,,,D,,] | %209
 !>![C,,,C,,][C,,C,]C,,C,, !>![C,,C,]C,C,,[C,,,C,,] | %210
 [_D,,,_D,,][D,,_D,]D,,D,, [D,,D,]D,D,,[D,,,D,,] | %211
 [_D,,,_D,,][D,,_D,]D,,D,, [D,,D,]D,D,,[D,,,D,,] | %212
 !>![C,,,C,,][C,,C,]C,,C,, !>![C,,C,]C,C,,[C,,,C,,] | %213
 !>![C,,,C,,][C,,C,]C,,C,, !>![C,,C,]C,C,,[C,,,C,,] | %214
 [_D,,,_D,,][D,,_D,]D,,D,, [D,,D,]D,D,,[D,,,D,,] | %215
 [_D,,,_D,,][D,,_D,]D,,D,, [D,,D,]D,D,,[D,,,D,,] | [C,,,C,,][C,,C,]C,,C,, [C,,C,]C,C,,[C,,,C,,] | %217
 .[C,,,C,,].[C,,C,].[C,,C,].[C,,,C,,] .[C,,C,].[C,,,C,,].[C,,,C,,].[C,,,,C,,,] | %218
 C,,,,C,,,,C,,,,C,,,, C,,,,C,,,,C,,,,C,,,, | C,,,,C,,,,C,,,,C,,,, C,,,,C,,,,C,,,,C,,,, | %220
 C,,,,C,,,,C,,,,C,,,, C,,,,C,,,,C,,,,C,,,, | C,,,,C,,,,C,,,,C,,,, C,,,,C,,,,C,,,,C,,,, | %222
 C,,,,C,,,,C,,,,C,,,, C,,,,C,,,,C,,,,C,,,, | C,,,,C,,,,C,,,,C,,,, C,,,,C,,,,C,,,,C,,,, | z8 | z8 | %226
 !>![F,,,F,,]C,F,_A, [F,A,C]A,F,[C,,C,] | !>![_B,,,,_B,,,]_B,,_D,F, [B,,D,F,_A,]F,D,[B,,,B,,] | %228
 !>![_D,,,_D,,]_A,,_D,F, [F,_A,C]F,D,[_A,,,A,,] | !>![C,,,C,,]_B,,E,_A, [E,A,C]E,B,,[C,,,C,,] | %230
 !>![F,,,F,,]C,F,_A, [F,A,C]A,F,[C,,C,] | !>![_B,,,,_B,,,]_B,,_D,F, [B,,D,F,_A,]F,D,[B,,,B,,] | %232
 !>![_D,,,_D,,]_A,,_D,F, [F,_A,C]F,D,[_A,,,A,,] | !>![C,,,C,,]_B,,E,_A, [E,A,C]E,B,,[C,,,C,,] | %234
 !>![F,,,F,,]C,F,_A, [F,A,C]A,F,[C,,C,] | !>![_B,,,,_B,,,]_B,,_D,F, [B,,D,F,_A,]F,D,[B,,,B,,] | %236
 !>![_D,,,_D,,]_A,,_D,F, [D,F,_A,]F,D,[_A,,,A,,] | !>![C,,,C,,]_B,,E,_A, [E,A,C]E,B,,[C,,,C,,] | %238
 !>![F,,,F,,]C,F,_A, [F,A,C]A,F,[C,,C,] | !>![_B,,,,_B,,,]_B,,_D,F, [B,,D,F,_A,]F,D,[B,,,B,,] | %240
 !>![_D,,,_D,,]_A,,_D,F, [F,_A,C]F,D,[_A,,,A,,] | !>![C,,,C,,]_B,,E,_A, [E,A,C]E,B,,[C,,,C,,] | %242
 !>![_D,,,_D,,]_A,,_D,F, [F,_A,C]F,D,[_A,,,A,,] | !>![_D,,,_D,,]_A,,_D,F, [F,_A,C]F,D,[_A,,,A,,] | %244
 !>![C,,,C,,]E,,_B,,[E,_A,C] z4 | z8 | z8 | B,8 | B,8 | A,8 | A,8 | B,8 | [^CF^G]2 C2 F2 C2 | %253
 ^F,8 | E,8 | B,8 | B,8 | A,8 | A,8 | B,8 | ^C2 C4 C2 | ^F,8- | F,4 z4 | %263
 !>![C,,C,]C,C,C, !>![C,,C,]!>!C,,!>!C,,!>![C,,,C,,] | %264
 !>![C,,,C,,]C,,C,,C,, !>![C,,C,]C,!>![C,C]!>![C,,C,] | %265
 !>![C,,C,]C,C,C, !>![C,,C,]!>!C,,!>!C,,!>![C,,,C,,] | %266
 !>![C,,,C,,]C,,C,,C,, !>![C,,C,]C,!>![C,C]!>![C,,C,] | %267
 !>![C,,C,]C,C,C, !>![C,,C,]!>!C,,!>!C,,!>![C,,,C,,] | %268
 !>![C,,,C,,]C,,C,,C,, !>![C,,C,]C,!>![C,C]!>![C,,C,] | %269
 !>![C,,C,]C,C,C, !>![C,,C,]!>!C,,!>!C,,!>![C,,,C,,] | %270
 !>![C,,,C,,]C,,C,,C,, !>![C,,C,]C,!>![C,C]!>![C,,C,] | %271
 !>![C,,C,]C,C,C, !>![C,,C,]!>!C,,!>!C,,!>![C,,,C,,] | %272
 !>![C,,,C,,]C,,C,,C,, !>![C,,C,]C,!>![C,C]!>![C,,C,] | %273
 !>![C,,C,]C,C,C, !>![C,,C,]!>!C,,!>!C,,!>![C,,,C,,] | %274
 !>![C,,,C,,]C,,C,,C,, !>![C,,C,]C,!>![C,C]!>![C,,C,] | %275
 !>![C,,C,]C,C,C, !>![C,,C,]!>!C,,!>!C,,!>![C,,,C,,] | %276
 !>![C,,,C,,]C,,C,,C,, !>![C,,C,]C,!>![C,C]!>![C,,C,] | %277
 !>![C,,C,]C,C,C, !>![C,,C,]!>!C,,!>!C,,!>![C,,,C,,] | %278
 !>![C,,,C,,]C,,C,,C,, !>![C,,C,]C,!>![C,C]!>![C,,C,] | %279
 !>![C,,,C,,]C,,,C,,,C,,, !>![C,,,C,,]C,,!>![C,,C,]!>![C,,,C,,] | %280
 !>![C,,,C,,]C,,,C,,,C,,, !>![C,,,C,,]C,,!>![C,,C,]!>![C,,,C,,] | %281
 !>![C,,,C,,]C,,,C,,,C,,, !>![C,,,C,,]C,,!>![C,,C,]!>![C,,,C,,] | %282
 !>![C,,,C,,]C,,,C,,,C,,, !>![C,,,C,,]C,,!>![C,,C,]!>![C,,,C,,] | %283
 !>![C,,,C,,]C,,,C,,,C,,, !>![C,,,C,,]C,,!>![C,,C,]!>![C,,,C,,] | %284
 !>![C,,,C,,]C,,,C,,,C,,, !>![C,,,C,,]C,,!>![C,,C,]!>![C,,,C,,] | %285
 !>![C,,,C,,]C,,,C,,,C,,, !>![C,,,C,,]C,,!>![C,,C,]!>![C,,,C,,] | %286
 !>![C,,,C,,]C,,,C,,,C,,, !>![C,,,C,,]C,,!>![C,,C,]!>![C,,,C,,] | %287
 !>![C,,,C,,]C,,,C,,,C,,, !>![C,,,C,,]C,,!>![C,,C,]!>![C,,,C,,] | %288
 !>![C,,,C,,]C,,,C,,,C,,, !>![C,,,C,,]C,,!>![C,,C,]!>![C,,,C,,] | %289
 !>![C,,,C,,]C,,,C,,,C,,, !>![C,,,C,,]C,,!>![C,,C,]!>![C,,,C,,] | %290
 !>![C,,,C,,]C,,,C,,,C,,, !>![C,,,C,,]C,,!>![C,,C,]!>![C,,,C,,] | %291
 !>![C,,,C,,]C,,,C,,,C,,, !>![C,,,C,,]C,,!>![C,,C,]!>![C,,,C,,] | %292
 !>![C,,,C,,]C,,,C,,,C,,, !>![C,,,C,,]C,,!>![C,,C,]!>![C,,,C,,] | %293
 !>![C,,,C,,]C,,,C,,,C,,, !>![C,,,C,,]C,,!>![C,,C,]!>![C,,,C,,] | [C,,,C,,]8 | z8 | z8 | %297
!fff! !>![F,,,F,,]C,F,_A, [F,A,C]A,F,[C,,C,] | %298
 !>![_B,,,,_B,,,]_B,,_D,F, [B,,D,F,_A,]F,D,[B,,,B,,] | %299
 !>![_D,,,_D,,]_A,,_D,F, [F,_A,C]F,D,[_A,,,A,,] | !>![C,,,C,,]_B,,E,_A, [E,A,C]E,B,,[C,,,C,,] | %301
 !>![F,,,F,,]C,F,_A, [F,A,C]A,F,[C,,C,] | !>![_B,,,,_B,,,]_B,,_D,F, [B,,D,F,_A,]F,D,[B,,,B,,] | %303
 !>![_D,,,_D,,]_A,,_D,F, [F,_A,C]F,D,[_A,,,A,,] | !>![C,,,C,,]_B,,E,_A, [E,A,C]E,B,,[C,,,C,,] | %305
 !>![F,,,F,,]C,F,_A, [F,A,C]A,F,[C,,C,] | !>![_B,,,,_B,,,]_B,,_D,F, [B,,D,F,_A,]F,D,[B,,,B,,] | %307
 !>![_D,,,_D,,]_A,,_D,F, [D,F,_A,]F,D,[_A,,,A,,] | !>![C,,,C,,]_B,,E,_A, [E,A,C]E,B,,[C,,,C,,] | %309
 !>![F,,,F,,]C,F,_A, [F,A,C]A,F,[C,,C,] | !>![_B,,,,_B,,,]_B,,_D,F, [B,,D,F,_A,]F,D,[B,,,B,,] | %311
 !>![_D,,,_D,,]_A,,_D,F, [F,_A,C]F,D,[_A,,,A,,] | !>![C,,,C,,]_B,,E,_A, [E,A,C]E,B,,[C,,,C,,] | %313
 !>![F,,,F,,]C,F,_A, [F,A,C]A,F,[C,,C,] | !>![_B,,,,_B,,,]_B,,_D,F, [B,,D,F,_A,]F,D,[B,,,B,,] | %315
 !>![_D,,,_D,,]_A,,_D,F, [F,_A,C]F,D,[_A,,,A,,] | !>![C,,,C,,]_B,,E,_A, [E,A,C]E,B,,[C,,,C,,] | %317
 !>![F,,,F,,]C,F,_A, [F,A,C]A,F,[C,,C,] | !>![_B,,,,_B,,,]_B,,_D,F, [B,,D,F,_A,]F,D,[B,,,B,,] | %319
 !>![_D,,,_D,,]_A,,_D,F, [F,_A,C]F,D,[_A,,,A,,] | !>![C,,,C,,]_B,,E,_A, [E,A,C]E,B,,[C,,,C,,] | %321
 !>![F,,,F,,]C,F,_A, [F,A,C]A,F,[C,,C,] | !>![_B,,,,_B,,,]_B,,_D,F, [B,,D,F,_A,]F,D,[B,,,B,,] | %323
 !>![_D,,,_D,,]_A,,_D,F, [D,F,_A,]F,D,[_A,,,A,,] | !>![C,,,C,,]_B,,E,_A, [E,A,C]E,B,,[C,,,C,,] | %325
 !>![F,,,F,,]C,F,_A, [F,A,C]A,F,[C,,C,] | !>![_B,,,,_B,,,]_B,,_D,F, [B,,D,F,_A,]F,D,[B,,,B,,] | %327
 !>![_D,,,_D,,]_A,,_D,F, [F,_A,C]F,D,[_A,,,A,,] | !>![C,,,C,,]_B,,E,_A, [E,A,C]E,B,,[C,,,C,,] | %329
 !>![_D,,,_D,,]_A,,_D,F, [D,F,_A,C]F,D,[_A,,,A,,] | %330
 !>![_D,,,_D,,]_A,,_D,F, [D,F,_A,C]F,D,[_A,,,A,,] | %331
 !>![_D,,,_D,,]_A,,_D,F, [F,_A,C]F,D,[_A,,,A,,] | [_D,,,_D,,]_A,,_D,F, [F,_A,]F,D,A,, | %333
!>(!!>(! [C,,,C,,]E,,_B,,!>)!!>)!!mf!!mf![E,_A,C]- [E,A,C]4- | [E,A,C]8 | z8 | _D, C7- | C8 | z8 | %339
 z8 |] %340
V:3
 D2 D4 D2 | E2 E4 E2 | ^C2 C4 C2 | x2 ^C4 C2 | D2 D4 D2 | x8 | A,2 A,4 A,2 | ^A,2 A,4 A,2 | %8
 D2 D4 D2 | E2 E4 E2 | ^C2 C4 C2 | x2 ^C4 C2 | D2 D4 D2 | F2 x2 F2 x2 | A,2 A,4 A,2- | A,4 x4 | %16
 x4 [F,^G,C]4 | x4 [^A,,^C,F,^G,]4 | x4 [F,^G,C]4 | x4 [E,^G,C]4 | x4 [F,^G,C]4 | %21
 x4 [^A,,^C,F,^G,]4 | x4 [F,^G,C]4 | x4 [E,^G,C]4 | x4 [F,^G,C]4 | x4 [^A,,^C,F,^G,]4 | %26
 x4 [F,^G,C]4 | x4 [E,^G,C]4 | x4 [F,^G,C]4 | x4 [F,^G,C]4 | x4 [E,^G,C]4 | x4 [E,^G,C]4 | F, G,7 | %33
 F, ^G,7 | F, ^A,7 | E, ^G,7 | F, G,7 | F, ^G,7 | F, ^A,7 | E, ^G,7 | F, G,7 | x8 | E, ^G,7 | x8 | %44
 F, ^G,7 | x8 | E, ^G,7 | x8 | x8 | x8 | x8 | x8 | x8 | x8 | x8 | x8 | x8 | x8 | x8 | x8 | x8 | %61
 x8 | x8 | x8 | x8 | x8 | x8 | x8 | x8 | x8 | x8 | x8 | x8 | x8 | x8 | x8 | x8 | D2 D4 D2 | %78
 E2 E4 E2 | ^C2 C4 C2 | x2 ^C4 C2 | D2 D4 D2 | x8 | A,2 A,4 A,2 | ^A,2 A,4 A,2 | D2 D4 D2 | %86
 E2 E4 E2 | ^C2 C4 C2 | x2 ^C4 C2 | D2 D4 D2 | F2 x2 F2 x2 | A,2 A,4 A,2- | A,4 x4 | x8 | x8 | x8 | %96
 x8 | x8 | x8 | x8 | x8 | x8 | x8 | x8 | x8 | x8 | x8 | x8 | x8 | x8 | x8 | x8 | x8 | x8 | x8 | %115
 x8 | x8 | x8 | x8 | x8 | x8 | x8 | x8 | x8 | x8 | x8 | x8 | x8 | x8 | x8 | x8 | x8 | x8 | x8 | %134
 x8 | x8 | x8 | x8 | x8 | x8 | x8 | x8 | x8 | x8 | x8 | x8 | x8 | x8 | x8 | x8 | x8 | x8 | x8 | %153
 x8 | x8 | x8 | x8 | x8 | x8 | x8 | x8 | x8 | x8 | x8 | x8 | x8 | x8 | x8 | x8 | x8 || D2 D4 D2 | %171
 E2 E4 E2 | ^C2 C4 C2 | x2 ^C4 C2 | D2 D4 D2 | ^C2 C4 C2 | A,2 A,4 A,2 | ^A,2 A,4 A,2 | D2 D4 D2 | %179
 E2 E4 E2 | ^C2 C4 C2 | x2 ^C4 C2 | D2 D4 D2 | F2 x2 F2 x2 | A,2 A,4 A,2- | A,4 x4 | x4 [F,_A,C]4 | %187
 x4 [_B,,_D,F,_A,]4 | x4 [F,_A,C]4 | x4 [E,_A,C]4 | x4 [F,_A,C]4 | x4 [_B,,_D,F,_A,]4 | %192
 x4 [F,_A,C]4 | x4 [E,_A,C]4 | x4 [F,_A,C]4 | x4 [_B,,_D,F,_A,]4 | x4 [F,_A,C]4 | x4 [E,_A,C]4 | %198
 x4 [F,_A,C]4 | x4 [F,_A,C]4 | x4 [E,_A,C]4 | x4 [E,_A,C]4 | x8 | x8 | x8 | x8 | x8 | x8 | x8 | %209
 x8 | x8 | x8 | x8 | x8 | F, _A,7 | x8 | E, _A,7 | x8 | x8 | x8 | x8 | x8 | x8 | x8 | x8 | x8 | %226
 x8 | x8 | x8 | x8 | x8 | x8 | x8 | x8 | x8 | x8 | x8 | x8 | x8 | x8 | x8 | x8 | x8 | x8 | x8 | %245
 x8 | x8 | D2 D4 D2 | E2 E4 E2 | ^C2 C4 C2 | x2 ^C4 C2 | D2 D4 D2 | x8 | A,2 A,4 A,2 | %254
 ^A,2 A,4 A,2 | D2 D4 D2 | E2 E4 E2 | ^C2 C4 C2 | x2 ^C4 C2 | D2 D4 D2 | F2 x2 F2 x2 | %261
 A,2 A,4 A,2- | A,4 x4 | x8 | x8 | x8 | x8 | x8 | x8 | x8 | x8 | x8 | x8 | x8 | x8 | x8 | x8 | x8 | %278
 x8 | x8 | x8 | x8 | x8 | x8 | x8 | x8 | x8 | x8 | x8 | x8 | x8 | x8 | x8 | x8 | x8 | x8 | x8 | %297
 x8 | x8 | x8 | x8 | x8 | x8 | x8 | x8 | x8 | x8 | x8 | x8 | x8 | x8 | x8 | x8 | x8 | x8 | x8 | %316
 x8 | x8 | x8 | x8 | x8 | x8 | x8 | x8 | x8 | x8 | x8 | x8 | x8 | x8 | x8 | x8 | x8 | x8 | x8 | %335
 x8 | x8 | x8 | x8 | x8 |] %340
V:4
 x8 | x8 | x8 | x8 | x8 | x8 | x8 | x8 | x8 | x8 | x8 | x8 | x8 | x8 | x8 | x8 | x8 | x8 | x8 | %19
 x8 | x8 | x8 | x8 | x8 | FG x6 | F^G x6 | F^A x6 | E^G x6 | F^G x6 | x8 | x8 | x8 | x8 | x8 | x8 | %35
 x8 | x8 | x8 | x8 | x8 | x8 | x8 | x8 | x8 | x8 | x8 | x8 | x8 | ^d6 ^A2 | ^A4 z4 | [F,^A,]7 F, | %51
 [F,^A,]7 F, | x8 | x7 f | x8 | x8 | x8 | x8 | x8 | x8 | [Cc]8- | [Cc]8 | x8 | x8 | x8 | x8 | x8 | %67
 x8 | [Cc]8- | [Cc]8 | x8 | x8 | x8 | x8 | x8 | x8 | x8 | x8 | x8 | x8 | x8 | x8 | x8 | x8 | x8 | %85
 x8 | x8 | x8 | x8 | x8 | x8 | x8 | x8 | x8 | x8 | x8 | x8 | x8 | x8 | x8 | x8 | x8 | x8 | x8 | %104
 x8 | x8 | x8 | x8 | x8 | [G^A^d]4 [C,^D,G,^A,]4 | [C,^D,G,^A,]4 [C,D,G,A,]4 | %111
 [C,^D,G,^A,]4 [C,D,G,A,]4 | [C,^D,G,^A,]4 [C,D,G,A,]4 | x4 [C,^D,G,^A,]4 | %114
 [C,^D,G,^A,]4 [C,D,G,A,]4 | [C,^D,G,^A,]4 [C,D,G,A,]4 | [C,^D,G,^A,]4 [C,D,G,A,]4 | %117
 x4 [C,^D,G,^A,]4 | [C,^D,G,^A,]4 [C,D,G,A,]4 | [C,^D,G,^A,]4 [C,D,G,A,]4 | %120
 [C,^D,G,^A,]4 [C,D,G,A,]4 | x4 [C,^D,G,^A,]4 | ^AA A2 AFFC | CCCC x4 | x4 CCCC | x8 | x8 | x8 | %128
 x8 | x8 | x8 | [Cc]8- | [Cc]8 | x8 | x8 | x8 | x8 | x8 | x8 | [Cc]8- | [Cc]8 | x8 | x8 | x8 | x8 | %145
 x8 | x8 | [Cc]8- | [Cc]8 | x8 | x8 | x8 | x8 | x8 | x8 | [Cc]8- | [Cc]8 | x8 | x8 | x8 | x8 | x8 | %162
 x8 | !>![CE]8 | x8 | x8 | x8 | x8 | x8 | x8 || x8 | x8 | x8 | x8 | x8 | x8 | x8 | x8 | x8 | x8 | %180
 x8 | x8 | x8 | x8 | x8 | x8 | x8 | x8 | x8 | x8 | x8 | x8 | x8 | x8 | x8 | x8 | x8 | x8 | x8 | %199
 x8 | x8 | x8 |[K:bass] x8 | x8 | x8 | x8 | x8 | x8 | x8 | x8 | x8 | x8 | x8 | x8 |[K:treble] x8 | %215
 x8 | x8 | x8 | _e6 ^A2 | _B4 x4 | x8 | x8 | x8 | x8 | x8 | x8 | x8 | x8 | x8 | x8 | x8 | x8 | x8 | %233
 x8 | x8 | x8 | x8 | x8 | x8 | x8 | x8 | x8 | x8 | x8 | x8 | x8 | x8 | x8 | x8 | x8 | x8 | x8 | %252
 x8 | x8 | x8 | x8 | x8 | x8 | x8 | x8 | x8 | x8 | x8 | x8 | x8 | x8 | x8 | x8 | x8 | x8 | x8 | %271
 x8 | x8 | x8 | x8 | x8 | x8 | x8 | x8 | [G_B_e]4 [C,_E,G,_B,]4 | [C,_E,G,_B,]4 [C,E,G,B,]4 | %281
 [C,_E,G,_B,]4 [C,E,G,B,]4 | [C,_E,G,_B,]4 [C,E,G,B,]4 | x4 [C,_E,G,_B,]4 | %284
 [C,_E,G,_B,]4 [C,E,G,B,]4 | [C,_E,G,_B,]4 [C,E,G,B,]4 | [C,_E,G,_B,]4 [C,E,G,B,]4 | %287
 x4 [C,_E,G,_B,]4 | [C,_E,G,_B,]4 [C,E,G,B,]4 | [C,_E,G,_B,]4 [C,E,G,B,]4 | %290
 [C,_E,G,_B,]4 [C,E,G,B,]4 | x4 [C,_E,G,_B,]4 | x8 | x8 | x8 | x8 | x8 | x8 | x8 | x8 | x8 | x8 | %302
 x8 | x8 | x8 | x8 | x8 | x8 | x8 | x8 | x8 | x8 | x8 | x8 | x8 | x8 | x8 | x8 | x8 | x8 | x8 | %321
 x8 | x8 | x8 | x8 | x8 | x8 | x8 | x8 | x8 | x8 | x8 | x8 | x8 | x8 | x8 | x8 | x8 | x8 | x8 |] %340
V:5
 x8 | x8 | x8 | x8 | x8 | x8 | x8 | x8 | x8 | x8 | x8 | x8 | x8 | x8 | x8 | x8 | x8 | x8 | x8 | %19
 x8 | x8 | x8 | x8 | x8 | x8 | x8 | x8 | x8 | x8 | x8 | x8 | x8 | [^G,,C,]4 [G,,C,]4 | %33
 [^A,,^C,]4 [A,,C,]4 | [^G,,^C,]4 [G,,C,]4 | [^A,,C,]4 [A,,C,]4 | [^G,,C,]4 [G,,C,]4 | %37
 [^A,,^C,]4 [A,,C,]4 | [^G,,^C,]4 [G,,C,]4 | [^A,,C,]4 [A,,C,]4 | ^C,4 [C,F,]4 | [^C,F,]4 [C,F,]4 | %42
 C,4 [C,E,]4 | [C,E,]4 [C,E,]4 | ^C,4 [C,F,]4 | [^C,F,]4 [C,F,]4 | C,4 [C,E,]4 | x8 | x8 | x8 | %50
 x8 | x8 | [F,,,^A,,,]4 [F,,,A,,,]4 | [F,,,^A,,,]4 [F,,,A,,,]4 | x8 | x8 | x8 | x8 | x8 | x8 | x8 | %61
 x8 | x8 | x8 | x8 | x8 | x8 | x8 | x8 | x8 | x8 | x8 | x8 | x8 | x8 | x8 | x8 | x8 | x8 | x8 | %80
 x8 | x8 | x8 | x8 | x8 | x8 | x8 | x8 | x8 | x8 | x8 | x8 | x8 | x8 | x8 | x8 | x8 | x8 | x8 | %99
 x8 | x8 | x8 | x8 | x8 | x8 | x8 | x8 | x8 | x8 | x8 | x8 | x8 | x8 | x8 | x8 | x8 | x8 | x8 | %118
 x8 | x8 | x8 | x8 | x8 | x8 | x8 | x8 | x8 | x8 | x8 | x8 | x8 | x8 | x8 | x8 | x8 | x8 | x8 | %137
 x8 | x8 | x8 | x8 | x8 | x8 | x8 | x8 | x8 | x8 | x8 | x8 | x8 | x8 | x8 | x8 | x8 | x8 | %155
 x4 [A,,,,B,,,,C,,,D,,,E,,,F,,,G,,,A,,,]4 | x4 [=A,,,,^A,,,,C,,,D,,,E,,,F,,,G,,,=A,,,]4 | x8 | x8 | %159
 x8 | x8 | x8 | x8 | x8 | x8 | x8 | x8 | x8 | x8 | x8 || x8 | x8 | x8 | x8 | x8 | x8 | x8 | x8 | %178
 x8 | x8 | x8 | x8 | x8 | x8 | x8 | x8 | x8 | x8 | x8 | x8 | x8 | x8 | x8 | x8 | x8 | x8 | x8 | %197
 x8 | x8 | x8 | x8 | x8 | [_A,,C,]4 [A,,C,]4 | [_B,,_D,]4 [B,,D,]4 | [_A,,_D,]4 [A,,D,]4 | %205
 [_B,,C,]4 [B,,C,]4 | [_A,,C,]4 [A,,C,]4 | [_B,,_D,]4 [B,,D,]4 | [_A,,_D,]4 [A,,D,]4 | %209
 [_B,,C,]4 [B,,C,]4 | _D,4 [D,F,]4 | [_D,F,]4 [D,F,]4 | C,4 [C,E,]4 | [C,E,]4 [C,E,]4 | %214
 _D,4 [D,F,]4 | [_D,F,]4 [D,F,]4 | C,4 [C,E,]4 | x8 | x8 | x8 | x8 | x8 | %222
 [F,,,_B,,,]4 [F,,,B,,,]4 | [F,,,_B,,,]4 [F,,,B,,,]4 | x8 | x8 | x8 | x8 | x8 | x8 | x8 | x8 | x8 | %233
 x8 | x8 | x8 | x8 | x8 | x8 | x8 | x8 | x8 | x8 | x8 | x8 | x8 | x8 | x8 | x8 | x8 | x8 | x8 | %252
 x8 | x8 | x8 | x8 | x8 | x8 | x8 | x8 | x8 | x8 | x8 | x8 | x8 | x8 | x8 | x8 | x8 | x8 | x8 | %271
 x8 | x8 | x8 | x8 | x8 | x8 | x8 | x8 | x8 | x8 | x8 | x8 | x8 | x8 | x8 | x8 | x8 | x8 | x8 | %290
 x8 | x8 | x8 | x8 | x8 | x8 | x8 | x8 | x8 | x8 | x8 | x8 | x8 | x8 | x8 | x8 | x8 | x8 | x8 | %309
 x8 | x8 | x8 | x8 | x8 | x8 | x8 | x8 | x8 | x8 | x8 | x8 | x8 | x8 | x8 | x8 | %325
 x4 [A,,,,B,,,,C,,,D,,,E,,,F,,,G,,,A,,,]4 | x4 [A,,,,_B,,,,C,,,D,,,E,,,F,,,G,,,A,,,]4 | x8 | x8 | %329
 x8 | x8 | x8 | x8 | x8 | x8 | x8 | x8 | x8 | x8 | x8 |] %340
V:6
 x8 | x8 | x8 | x8 | x8 | x8 | x8 | x8 | x8 | x8 | x8 | x8 | x8 | x8 | x8 | x8 | x8 | x8 | x8 | %19
 x8 | x8 | x8 | x8 | x8 | x8 | x8 | x8 | x8 | x8 | x8 | x8 | x8 | x8 | x8 | x8 | x8 | x8 | x8 | %38
 x8 | x8 | x8 | x8 | x8 | x8 | x8 | x8 | x8 | x8 | x8 | x8 | x8 | x8 | x8 | x8 | x8 | x8 | x8 | %57
 x8 | x8 | x8 | x8 | x8 | x8 | x8 | x8 | x8 | x8 | x8 | x8 | x8 | x8 | x8 | x8 | x8 | x8 | x8 | %76
 x8 | x8 | x8 | x8 | x8 | x8 | x8 | x8 | x8 | x8 | x8 | x8 | x8 | x8 | x8 | x8 | x8 | x8 | x8 | %95
 x8 | x8 | x8 | x8 | x8 | x8 | x8 | x8 | x8 | x8 | x8 | x8 | x8 | x8 | x8 | ^d^AAA AFFC | C C3 x4 | %112
 x8 | x8 | ^d^AAA A2 FC | C4 x4 | x8 | x8 | ^d^AAA AFFC | C C3 x4 | x8 | x8 | x8 | x8 | x8 | x8 | %126
 x8 | x8 | x8 | x8 | x8 | x8 | x8 | x8 | x8 | x8 | x8 | x8 | x8 | x8 | x8 | x8 | x8 | x8 | x8 | %145
 x8 | x8 | x8 | x8 | x8 | x8 | x8 | x8 | x8 | x8 | x8 | x8 | x8 | x8 | x8 | x8 | x8 | x8 | x8 | %164
 x8 | x8 | x8 | x8 | x8 | x8 || x8 | x8 | x8 | x8 | x8 | x8 | x8 | x8 | x8 | x8 | x8 | x8 | x8 | %183
 x8 | x8 | x8 | x8 | x8 | x8 | x8 | x8 | x8 | x8 | x8 | x8 | x8 | x8 | x8 | x8 | x8 | x8 | x8 | %202
[K:bass] x8 | x8 | x8 | x8 | x8 | x8 | x8 | x8 | x8 | x8 | x8 | x8 |[K:treble] x8 | x8 | x8 | x8 | %218
 x8 | x8 | x8 | x8 | x8 | x8 | x8 | x8 | x8 | x8 | x8 | x8 | x8 | x8 | x8 | x8 | x8 | x8 | x8 | %237
 x8 | x8 | x8 | x8 | x8 | x8 | x8 | x8 | x8 | x8 | x8 | x8 | x8 | x8 | x8 | x8 | x8 | x8 | x8 | %256
 x8 | x8 | x8 | x8 | x8 | x8 | x8 | x8 | x8 | x8 | x8 | x8 | x8 | x8 | x8 | x8 | x8 | x8 | x8 | %275
 x8 | x8 | x8 | x8 | x8 | x8 | x8 | x8 | x8 | x8 | x8 | x8 | x8 | x8 | x8 | x8 | x8 | x8 | x8 | %294
 x8 | x8 | x8 | x8 | x8 | x8 | x8 | x8 | x8 | x8 | x8 | x8 | x8 | x8 | x8 | x8 | x8 | x8 | x8 | %313
 x8 | x8 | x8 | x8 | x8 | x8 | x8 | x8 | x8 | x8 | x8 | x8 | x8 | x8 | x8 | x8 | x8 | x8 | x8 | %332
 x8 | x8 | x8 | x8 | x8 | x8 | x8 | x8 |] %340

